assets/icons/action/new_custom24.svg

<?xml version="1.0"?><svg xmlns="http://www.w3.org/2000/svg" width="52" height="52" viewBox="0 0 52 52"><g fill="#fff"><path d="m40.3 2h-28.6c-2.6 0-4.7 2.2-4.7 4.7v0.1c0 0.9 0.7 1.6 1.6 1.6h34.8c0.9 0 1.6-0.7 1.6-1.6v-0.1c0-2.5-2.1-4.7-4.7-4.7z m-0.1 11.2h-28.4c-0.9 0-1.6 0.7-1.6 1.6v33.6c0 0.9 0.7 1.6 1.6 1.6h8.8c0.9 0 1.5-0.7 1.5-1.6v-6.4c0-0.9 0.8-1.6 1.7-1.6h4.6c0.9 0 1.7 0.7 1.7 1.6v6.4c0 0.9 0.6 1.6 1.5 1.6h8.8c0.9 0 1.6-0.7 1.6-1.6v-33.6c-0.2-0.9-0.9-1.6-1.8-1.6z m-16.6 21.6c0 0.9-0.7 1.6-1.6 1.6h-3.2c-0.9 0-1.6-0.7-1.6-1.6v-3.2c0-0.9 0.7-1.6 1.6-1.6h3.2c0.9 0 1.6 0.7 1.6 1.6v3.2z m0-11.2c0 0.9-0.7 1.6-1.6 1.6h-3.2c-0.9 0-1.6-0.7-1.6-1.6v-3.2c0-0.9 0.7-1.6 1.6-1.6h3.2c0.9 0 1.6 0.7 1.6 1.6v3.2z m11.1 11.2c0 0.9-0.7 1.6-1.6 1.6h-3.1c-0.9 0-1.6-0.7-1.6-1.6v-3.2c0-0.9 0.7-1.6 1.6-1.6h3.2c0.9 0 1.6 0.7 1.6 1.6v3.2z m0-11.2c0 0.9-0.7 1.6-1.6 1.6h-3.1c-0.9 0-1.6-0.7-1.6-1.6v-3.2c0-0.9 0.7-1.6 1.6-1.6h3.2c0.9 0 1.6 0.7 1.6 1.6v3.2z"></path></g></svg>

<svg xmlns="http://www.w3.org/2000/svg" x="0px" y="0px"
	 width="52px" height="52px" viewBox="0 0 52 52" enable-background="new 0 0 52 52" xml:space="preserve">
<g>
	<path fill="#FFFFFF" d="M40.3,2H11.7C9.1,2,7,4.2,7,6.7v0.1c0,0.9,0.7,1.6,1.6,1.6h34.8c0.9,0,1.6-0.7,1.6-1.6V6.7
		C45,4.2,42.9,2,40.3,2z"/>
	<path fill="#FFFFFF" d="M40.2,13.2H11.8c-0.9,0-1.6,0.7-1.6,1.6v33.6c0,0.9,0.7,1.6,1.6,1.6h8.8c0.9,0,1.5-0.7,1.5-1.6V42
		c0-0.9,0.8-1.6,1.7-1.6h4.6c0.9,0,1.7,0.7,1.7,1.6v6.4c0,0.9,0.6,1.6,1.5,1.6h8.8c0.9,0,1.6-0.7,1.6-1.6V14.8
		C41.8,13.9,41.1,13.2,40.2,13.2z M23.6,34.8c0,0.9-0.7,1.6-1.6,1.6h-3.2c-0.9,0-1.6-0.7-1.6-1.6v-3.2c0-0.9,0.7-1.6,1.6-1.6H22
		c0.9,0,1.6,0.7,1.6,1.6V34.8z M23.6,23.6c0,0.9-0.7,1.6-1.6,1.6h-3.2c-0.9,0-1.6-0.7-1.6-1.6v-3.2c0-0.9,0.7-1.6,1.6-1.6H22
		c0.9,0,1.6,0.7,1.6,1.6V23.6z M34.7,34.8c0,0.9-0.7,1.6-1.6,1.6H30c-0.9,0-1.6-0.7-1.6-1.6v-3.2c0-0.9,0.7-1.6,1.6-1.6h3.2
		c0.9,0,1.6,0.7,1.6,1.6V34.8z M34.7,23.6c0,0.9-0.7,1.6-1.6,1.6H30c-0.9,0-1.6-0.7-1.6-1.6v-3.2c0-0.9,0.7-1.6,1.6-1.6h3.2
		c0.9,0,1.6,0.7,1.6,1.6V23.6z"/>
</g>
</svg>
